icons/QRCode.svg

<svg width="24" height="24" viewBox="0 0 24 24" fill="none" xmlns="http://www.w3.org/2000/svg">
<path fill-rule="evenodd" clip-rule="evenodd" d="M9,4.5h-4c-0.27614,0 -0.5,0.22386 -0.5,0.5v4c0,0.27614 0.22386,0.5 0.5,0.5h4c0.27614,0 0.5,-0.22386 0.5,-0.5v-4c0,-0.27614 -0.22386,-0.5 -0.5,-0.5zM9,3c1.1046,0 2,0.89543 2,2v4c0,1.1046 -0.8954,2 -2,2h-4c-1.10457,0 -2,-0.8954 -2,-2v-4c0,-1.10457 0.89543,-2 2,-2zM19,4.5h-4c-0.2761,0 -0.5,0.22386 -0.5,0.5v4c0,0.27614 0.2239,0.5 0.5,0.5h4c0.2761,0 0.5,-0.22386 0.5,-0.5v-4c0,-0.27614 -0.2239,-0.5 -0.5,-0.5zM19,3c1.1046,0 2,0.89543 2,2v4c0,1.1046 -0.8954,2 -2,2h-4c-1.1046,0 -2,-0.8954 -2,-2v-4c0,-1.10457 0.8954,-2 2,-2zM4.5,15v4c0,0.2761 0.22386,0.5 0.5,0.5h4c0.27614,0 0.5,-0.2239 0.5,-0.5v-4c0,-0.2761 -0.22386,-0.5 -0.5,-0.5h-4c-0.27614,0 -0.5,0.2239 -0.5,0.5zM3,15c0,-1.1046 0.89543,-2 2,-2h4c1.1046,0 2,0.8954 2,2v4c0,1.1046 -0.8954,2 -2,2h-4c-1.10457,0 -2,-0.8954 -2,-2zM6,16.5c0,-0.2761 0.22386,-0.5 0.5,-0.5h1c0.27614,0 0.5,0.2239 0.5,0.5v1c0,0.2761 -0.22386,0.5 -0.5,0.5h-1c-0.27614,0 -0.5,-0.2239 -0.5,-0.5zM7.5,6c0.27614,0 0.5,0.22386 0.5,0.5v1c0,0.27614 -0.22386,0.5 -0.5,0.5h-1c-0.27614,0 -0.5,-0.22386 -0.5,-0.5v-1c0,-0.27614 0.22386,-0.5 0.5,-0.5zM16,6.5c0,-0.27614 0.2239,-0.5 0.5,-0.5h1c0.2761,0 0.5,0.22386 0.5,0.5v1c0,0.27614 -0.2239,0.5 -0.5,0.5h-1c-0.2761,0 -0.5,-0.22386 -0.5,-0.5zM15.1667,13c0.2761,0 0.5,0.2239 0.5,0.5v1.6666c0,0.2762 -0.2239,0.5 -0.5,0.5h-1.6667c-0.2761,0 -0.5,-0.2238 -0.5,-0.5v-1.6666c0,-0.2761 0.2239,-0.5 0.5,-0.5zM13,18.8335c0,-0.2761 0.2239,-0.5 0.5,-0.5h1.6667c0.2761,0 0.5,0.2239 0.5,0.5v1.6666c0,0.2762 -0.2239,0.5 -0.5,0.5h-1.6667c-0.2761,0 -0.5,-0.2238 -0.5,-0.5zM20.4999,13c0.2762,0 0.5,0.2239 0.5,0.5v1.6666c0,0.2762 -0.2238,0.5 -0.5,0.5h-1.6666c-0.2762,0 -0.5,-0.2238 -0.5,-0.5v-1.6666c0,-0.2761 0.2238,-0.5 0.5,-0.5zM15.6667,16.1665c0,-0.2761 0.2239,-0.5 0.5,-0.5h1.6667c0.2762,0 0.5,0.2239 0.5,0.5v1.6666c0,0.2762 -0.2238,0.5 -0.5,0.5h-1.6667c-0.2761,0 -0.5,-0.2238 -0.5,-0.5zM20.4999,18.3335c0.2762,0 0.5,0.2239 0.5,0.5v1.6666c0,0.2762 -0.2238,0.5 -0.5,0.5h-1.6666c-0.2762,0 -0.5,-0.2238 -0.5,-0.5v-1.6666c0,-0.2761 0.2238,-0.5 0.5,-0.5z" fill="#002B51"/>
</svg>

<svg width="24" height="24" viewBox="0 0 24 24" fill="none" xmlns="http://www.w3.org/2000/svg">
<path fill-rule="evenodd" clip-rule="evenodd" d="M9 4.5H5C4.72386 4.5 4.5 4.72386 4.5 5V9C4.5 9.27614 4.72386 9.5 5 9.5H9C9.27614 9.5 9.5 9.27614 9.5 9V5C9.5 4.72386 9.27614 4.5 9 4.5ZM5 3C3.89543 3 3 3.89543 3 5V9C3 10.1046 3.89543 11 5 11H9C10.1046 11 11 10.1046 11 9V5C11 3.89543 10.1046 3 9 3H5ZM19 4.5H15C14.7239 4.5 14.5 4.72386 14.5 5V9C14.5 9.27614 14.7239 9.5 15 9.5H19C19.2761 9.5 19.5 9.27614 19.5 9V5C19.5 4.72386 19.2761 4.5 19 4.5ZM15 3C13.8954 3 13 3.89543 13 5V9C13 10.1046 13.8954 11 15 11H19C20.1046 11 21 10.1046 21 9V5C21 3.89543 20.1046 3 19 3H15ZM5 14.5H9C9.27614 14.5 9.5 14.7239 9.5 15V19C9.5 19.2761 9.27614 19.5 9 19.5H5C4.72386 19.5 4.5 19.2761 4.5 19V15C4.5 14.7239 4.72386 14.5 5 14.5ZM3 15C3 13.8954 3.89543 13 5 13H9C10.1046 13 11 13.8954 11 15V19C11 20.1046 10.1046 21 9 21H5C3.89543 21 3 20.1046 3 19V15ZM6 16.5C6 16.2239 6.22386 16 6.5 16H7.5C7.77614 16 8 16.2239 8 16.5V17.5C8 17.7761 7.77614 18 7.5 18H6.5C6.22386 18 6 17.7761 6 17.5V16.5ZM6.5 6C6.22386 6 6 6.22386 6 6.5V7.5C6 7.77614 6.22386 8 6.5 8H7.5C7.77614 8 8 7.77614 8 7.5V6.5C8 6.22386 7.77614 6 7.5 6H6.5ZM16 6.5C16 6.22386 16.2239 6 16.5 6H17.5C17.7761 6 18 6.22386 18 6.5V7.5C18 7.77614 17.7761 8 17.5 8H16.5C16.2239 8 16 7.77614 16 7.5V6.5ZM13.5 13C13.2239 13 13 13.2239 13 13.5V15.1666C13 15.4428 13.2239 15.6666 13.5 15.6666H15.1667C15.4428 15.6666 15.6667 15.4428 15.6667 15.1666V13.5C15.6667 13.2239 15.4428 13 15.1667 13H13.5ZM13 18.8335C13 18.5574 13.2239 18.3335 13.5 18.3335H15.1667C15.4428 18.3335 15.6667 18.5574 15.6667 18.8335V20.5001C15.6667 20.7763 15.4428 21.0001 15.1667 21.0001H13.5C13.2239 21.0001 13 20.7763 13 20.5001V18.8335ZM18.8333 13C18.5571 13 18.3333 13.2239 18.3333 13.5V15.1666C18.3333 15.4428 18.5571 15.6666 18.8333 15.6666H20.4999C20.7761 15.6666 20.9999 15.4428 20.9999 15.1666V13.5C20.9999 13.2239 20.7761 13 20.4999 13H18.8333ZM15.6667 16.1665C15.6667 15.8904 15.8906 15.6665 16.1667 15.6665H17.8334C18.1096 15.6665 18.3334 15.8904 18.3334 16.1665V17.8331C18.3334 18.1093 18.1096 18.3331 17.8334 18.3331H16.1667C15.8906 18.3331 15.6667 18.1093 15.6667 17.8331V16.1665ZM18.8333 18.3335C18.5571 18.3335 18.3333 18.5574 18.3333 18.8335V20.5001C18.3333 20.7763 18.5571 21.0001 18.8333 21.0001H20.4999C20.7761 21.0001 20.9999 20.7763 20.9999 20.5001V18.8335C20.9999 18.5574 20.7761 18.3335 20.4999 18.3335H18.8333Z" fill="#002B51"/>
</svg>
